!!!COM: Bach, Johann Sebastian
!!!OTL@@DE: 251. Ich bin ja, Herr, in deiner Macht
!!!OTL@EN: I am indeed, Lord, in Thy power
!!!SCA: BWV 345
**kern	**kern	**kern	**kern
*staff2	*staff2	*staff1	*staff1
*Iorgan	*Iorgan	*Iorgan	*Iorgan
*>[A,A,B]	*>[A,A,B]	*>[A,A,B]	*>[A,A,B]
*>norep[A,B]	*>norep[A,B]	*>norep[A,B]	*>norep[A,B]
*>A	*>A	*>A	*>A
!bass	!tenor	!alto	!sprno
*clefF4	*clefF4	*clefG2	*clefG2
*k[b-e-]	*k[b-e-]	*k[b-e-]	*k[b-e-]
*met(C)	*met(C)	*met(C)	*met(C)
*M4/4	*M4/4	*M4/4	*M4/4
*MM60	*MM60	*MM60	*MM60
4G\	4B-/	4d\	4g/
=1	=1	=1	=1
4G\	8c/L	4e-\	4a/
.	8B-/J	.	.
4F#\	4A/	4d\	8a/L
.	.	.	16b-/L
.	.	.	16cc/JJ
4.G\	4.G/	4.d\	8b-/L
.	.	.	8g/J
.	.	.	[4dd/
8Fn\	8A/	8d\	.
=2	=2	=2	=2
8E-\L	4B-/	4g\	8dd/L]
8D\J	.	.	16cc/L
.	.	.	16b-/J
8E-\L	8c/L	8f#\	8a/J
8C\J	8B-/J	8g\	8g/
4D;\	4A;/	4d;\	4f#;/
4D\	4d/	4f#\	4a/
=3	=3	=3	=3
4G\	4d/	4g\	4b-/
4A\	4c/	4fn\	8cc/L
.	.	.	16dd/L
.	.	.	16ee-/JJ
4.B-\	4.B-/	4.f\	8dd/L
.	.	.	8b-/J
.	.	.	[4ff/
8A\	8c/	8f\	.
=4	=4	=4	=4
8G\L	4d/	4b-\	8ff/L]
8F\J	.	.	16een/L
.	.	.	16dd/J
8En\L	8G/L	8cc\L	8cc/J
8C\J	8c/J	8en\J	8b-/
4F;\	4c;/	4f;\	4a;/
4B-\	4B-/	4f\	4dd/
=5	=5	=5	=5
!!linebreak: 2
4En\	4B-/	4g\	4cc#/
4F\	4A/	4f\	4dd/
4C#\	4A/	4en\	8een/L
.	.	.	16ff/L
.	.	.	16gg/JJ
4D\	8A/L	4d\	8ff/L
.	8d/J	.	8ee/J
=6	=6	=6	=6
4A\	8d/L	8en\L	2een/
.	16c#/L	8f\J	.
.	16Bn/JJ	.	.
4AA\	4c#/	4g\	.
4D;\	4A;/	4f#;\	4dd;/
=:|!	=:|!	=:|!	=:|!
*>B	*>B	*>B	*>B
4F#\	4d/	4a\	4dd/
=7	=7	=7	=7
4G\	4d/	4g\	8b-/L
.	.	.	8a/J
4Fn\	4d/	4g\	8bn/L
.	.	.	8dd/J
4.E-\	4.c/	4.g\	8gg/L
.	.	.	8ee-/J
.	.	.	4cc/
8A-\	8c/	8e-\	.
=8	=8	=8	=8
8F\L	4c/	4a-\	8dd/L
8D\J	.	.	8ff/J
4G\	4Bn/	4g\	8ee-/L
.	.	.	8dd/J
4C;\	4c;/	4g;\	4ee-;/
4c\	4d/	4f#\	4an/
=9	=9	=9	=9
8B-\L	4d/	8g\L	4dd/
8A\J	.	8fn\J	.
8B-\L	4c/	4en\	4g/
8c\J	.	.	.
8A\L	8c/L	8f#\L	8cc/L
8G\J	8B-/J	8g\J	16dd/L
.	.	.	16ee-/JJ
4F#\	8A/L	4a\	8dd/L
.	8d/J	.	8cc/J
=10	=10	=10	=10
4G\	4d/	8a\L	4b-/
.	.	8g\J	.
4D\	8c/L	4f#\	8a/L
.	8B-/J	.	8g/J
4GG;\	4B-;/	4d;\	4g;/
==	==	==	==
*-	*-	*-	*-
!!!ENC: Craig Stuart Sapp
!!!END: 2004/12/06/
!!chor2scor: -l 2 -s 0.6 -o %b.pmx
